svgs/sharp-regular/chart-area.svg

<svg xmlns="http://www.w3.org/2000/svg" viewBox="0 0 512 512"><!--! Font Awesome Pro 6.6.0 by @fontawesome - https://fontawesome.com License - https://fontawesome.com/license (Commercial License) Copyright 2024 Fonticons, Inc. --><path d="M48 56l0-24L0 32 0 56 0 456l0 24 24 0 464 0 24 0 0-48-24 0L48 432 48 56zm209.9 73.9L224 96l-33.9 33.9L96 224l0 112 0 48 48 0 288 0 48 0 0-48 0-96-64.7-75.4L384 128l-30.1 30.1-4 4-30 30-33.9-33.9-28.1-28.1zm96 96l27.3-27.3L432 257.8l0 78.2-288 0 0-92.1 80-80 62.1 62.1L320 259.9l33.9-33.9z"/></svg>

<svg xmlns="http://www.w3.org/2000/svg" viewBox="0 0 512 512"><!--! Font Awesome Pro 6.4.0 by @fontawesome - https://fontawesome.com License - https://fontawesome.com/license (Commercial License) Copyright 2023 Fonticons, Inc. --><path d="M48 56V32H0V56 456v24H24 488h24V432H488 48V56zm209.9 73.9L224 96l-33.9 33.9L96 224V336v48h48H432h48V336 240l-64.7-75.4L384 128l-30.1 30.1-4 4-30 30-33.9-33.9-28.1-28.1zm96 96l27.3-27.3L432 257.8V336H144V243.9l80-80 62.1 62.1L320 259.9l33.9-33.9z"/></svg>
